symbols/web/screen_rotation_alt/materialsymbolsoutlined/screen_rotation_alt_20px.svg

<svg xmlns="http://www.w3.org/2000/svg" height="20" width="20"><path d="M10.083 17.792 3.25 10.958h2.479l5.604 5.604 4.021-4.02H13.25v-1.75h5.083v5.083h-1.75v-2.104l-4.021 4.021q-.52.52-1.239.52-.719 0-1.24-.52ZM1.667 9.208V4.125h1.75v2.104l4.021-4.021q.52-.52 1.239-.52.719 0 1.24.52l6.833 6.834h-2.479L8.667 3.438l-4.021 4.02H6.75v1.75Z"/></svg>

<svg xmlns="http://www.w3.org/2000/svg" height="20" width="20"><path d="M10.083 17.792 3.25 10.958H5.729L11.333 16.562Q11.333 16.562 11.333 16.562Q11.333 16.562 11.333 16.562L15.354 12.542H13.25V10.792H18.333V15.875H16.583V13.771L12.562 17.792Q12.042 18.312 11.323 18.312Q10.604 18.312 10.083 17.792ZM1.667 9.208V4.125H3.417V6.229L7.438 2.208Q7.958 1.688 8.677 1.688Q9.396 1.688 9.917 2.208L16.75 9.042H14.271L8.667 3.438Q8.667 3.438 8.667 3.438Q8.667 3.438 8.667 3.438L4.646 7.458H6.75V9.208Z"/></svg>
